packages/dynamic-pages/assets/twitter.svg

<svg width="36" height="36" viewBox="0 0 36 36" fill="none" xmlns="http://www.w3.org/2000/svg">
<path d="M13.8258 27.1431C22.3164 27.1431 26.9604 20.1087 26.9604 14.0085C26.9604 13.8087 26.9604 13.6098 26.9469 13.4118C27.8503 12.7583 28.6302 11.9492 29.25 11.0223C28.4075 11.3956 27.5137 11.6404 26.5986 11.7486C27.5623 11.1717 28.2835 10.2643 28.6281 9.19529C27.7219 9.733 26.7306 10.112 25.6968 10.3158C25.0008 9.57571 24.0803 9.08564 23.0777 8.92143C22.0751 8.75722 21.0463 8.92802 20.1506 9.4074C19.2549 9.88678 18.5421 10.648 18.1226 11.5733C17.7031 12.4986 17.6002 13.5364 17.8299 14.526C15.9946 14.434 14.1991 13.957 12.5601 13.1261C10.921 12.2952 9.47505 11.1289 8.316 9.70289C7.72568 10.7191 7.54488 11.9222 7.81041 13.067C8.07593 14.2119 8.76782 15.2125 9.7452 15.8652C9.01057 15.8434 8.29195 15.6452 7.65 15.2874C7.65 15.3063 7.65 15.3261 7.65 15.3459C7.65029 16.4117 8.01924 17.4446 8.69425 18.2694C9.36927 19.0941 10.3088 19.6601 11.3535 19.8711C10.6739 20.0564 9.96082 20.0835 9.2691 19.9503C9.56408 20.8675 10.1384 21.6697 10.9117 22.2445C11.6849 22.8193 12.6186 23.138 13.5819 23.1561C11.9473 24.4408 9.92795 25.1382 7.8489 25.1361C7.48161 25.1354 7.11468 25.1131 6.75 25.0695C8.86107 26.4242 11.3174 27.1428 13.8258 27.1395" fill="#B8B9BA"/>
</svg>

<svg width="36" height="36" fill="none" xmlns="http://www.w3.org/2000/svg"><path d="M13.826 27.143c8.49 0 13.134-7.034 13.134-13.135 0-.2 0-.398-.013-.596a9.394 9.394 0 002.303-2.39 9.217 9.217 0 01-2.651.727 4.632 4.632 0 002.03-2.554 9.25 9.25 0 01-2.932 1.12 4.62 4.62 0 00-7.867 4.211 13.106 13.106 0 01-9.514-4.823 4.62 4.62 0 001.43 6.162 4.583 4.583 0 01-2.096-.578v.059a4.618 4.618 0 003.704 4.525 4.61 4.61 0 01-2.085.08 4.622 4.622 0 004.313 3.205A9.263 9.263 0 016.75 25.07a13.07 13.07 0 007.076 2.07" fill="#B8B9BA"/></svg>
